priv/static/images/languages/css.svg

<svg
  width="128"
  height="128"
  viewBox="0 0 128 128"
  fill="none"
  xmlns="http://www.w3.org/2000/svg"
>
  <path
    d="M18.8138 114.123L8.75977 1.35156H119.24L109.176 114.106L63.9328 126.649L18.8138 114.123Z"
    fill="#1572B6"
  />
  <path
    d="M64.001 117.062L100.56 106.926L109.161 10.5723H64.001V117.062Z"
    fill="#33A9DC"
  />
  <path
    d="M64.001 51.4286H82.303L83.567 37.2656H64.001V23.4346H98.683L98.351 27.1456L94.951 65.2596H64.001V51.4286Z"
    fill="white"
  />
  <path
    d="M64.083 87.3488L64.022 87.3668L48.619 83.2078L47.634 72.1768H33.752L35.689 93.8938L64.02 101.757L64.083 101.739V87.3488Z"
    fill="#EBEBEB"
  />
  <path
    d="M81.1272 64.6748L79.4612 83.1968L64.0352 87.3608V101.751L92.3892 93.8928L92.5972 91.5558L95.0032 64.6748H81.1272Z"
    fill="white"
  />
  <path
    d="M64.0479 23.4346V37.2656H30.6399L30.3629 34.1576L29.7329 27.1456L29.4019 23.4346H64.0479ZM64.0009 51.4306V65.2616H48.7919L48.5149 62.1536L47.8839 55.1416L47.5539 51.4306H64.0009Z"
    fill="#EBEBEB"
  />
</svg>

<svg xmlns="http://www.w3.org/2000/svg" width="128" height="128" fill="none"><path fill="#1572B6" d="M18.814 114.123 8.76 1.352h110.48l-10.064 112.754-45.243 12.543z"/><path fill="#33A9DC" d="m64.001 117.062 36.559-10.136 8.601-96.354h-45.16z"/><path fill="#fff" d="M64.001 51.429h18.302l1.264-14.163H64.001V23.435h34.682l-.332 3.71-3.4 38.115h-30.95z"/><path fill="#EBEBEB" d="m64.083 87.349-.061.018-15.403-4.16-.985-11.03H33.752l1.937 21.717 28.331 7.863.063-.018z"/><path fill="#fff" d="m81.127 64.675-1.666 18.522-15.426 4.164v14.39l28.354-7.858.208-2.337 2.406-26.881z"/><path fill="#EBEBEB" d="M64.048 23.435v13.83H30.64l-.277-3.107-.63-7.012-.331-3.711zM64 51.43v13.83H48.79l-.276-3.107-.631-7.012-.33-3.711z"/></svg>
